X:51
T: Scott Skinner's Compliments To Dr. MacDonald
R: march
M: 4/4
L: 1/8
K: Amaj
|:E|{G}A2a>f e/d/c/B/ AB/c/|df ea cBBc|de/f/ ef/g/ aecA|d/B/e/d/ c/A/B/G/ EA A:|
g|{g}a2ef/g/ aecA|df ea {cd}cB Bg|{g}a2ef/g/ ae cA|d/B/e/d/ c/A/B/G/ EA Ae|
ag/f/ ef/g/ {g}aecA|df ea {cd}cBB2|AB/c/ de/f/ ef/g/ ae/c/|d/B/e/d/ c/A/B/G/ EAA||
|:E|A/B/c/d/ e/f/g/a/ e/c/B/A/ G/A/B/c/|{e}d/c/d/f/ e/A/a/e/ {cd}cBBc|d/c/d/f/ ^d/e/f/g/ a/g/f/e/ =d/c/B/A/|d/B/e/d/ c/A/B/G/ EAA:|
e|a/g/f/e/ ^d/e/f/g/ aecA|d/e/f/d/ e/f/g/a/ {cd}cB Be|a/g/f/e/ ^d/e/f/g/ a/e/c/a/ e/c/A/c/|d/B/e/d/ c/A/B/G/ EAA (3e/f/g/|
a/g/f/e/ ^d/e/f/g/ aecA|d/e/f/d/ e/f/g/a/ {cd}cB Bc|A/c/B/d/ c/e/d/f/ e/f/g/a/ e/c/B/A/|d/B/e/d/ c/A/B/G/ EAA||

